src/dsmComponents/Icons/check-20px.svg

<?xml version="1.0" encoding="UTF-8"?>
<svg width="20px" height="20px" viewBox="0 0 20 20" version="1.1" xmlns="http://www.w3.org/2000/svg" xmlns:xlink="http://www.w3.org/1999/xlink">
    <!-- Generator: Sketch 59.1 (86144) - https://sketch.com -->
    <title>check-20px</title>
    <desc>Created with Sketch.</desc>
    <defs>
        <path d="M5.68414666,9.35717565 C5.32912458,9.00215357 4.75352005,9.00215357 4.39849797,9.35717565 C4.04347588,9.71219774 4.04347588,10.2878023 4.39849797,10.6428243 L7.70428309,13.9486095 C8.05930517,14.3036316 8.6349097,14.3036316 8.98993178,13.9486095 L15.601502,7.33703922 C15.9565241,6.98201714 15.9565241,6.40641261 15.601502,6.05139053 C15.2464799,5.69636845 14.6708754,5.69636845 14.3158533,6.05139053 L8.34710744,12.0201364 L5.68414666,9.35717565 Z M10,20 C15.5228475,20 20,15.5228475 20,10 C20,4.4771525 15.5228475,0 10,0 C4.4771525,0 0,4.4771525 0,10 C0,15.5228475 4.4771525,20 10,20 Z M10,18 C5.581722,18 2,14.418278 2,10 C2,5.581722 5.581722,2 10,2 C14.418278,2 18,5.581722 18,10 C18,14.418278 14.418278,18 10,18 Z" id="path-1"></path>
    </defs>
    <g id="Final" stroke="none" stroke-width="1" fill="none" fill-rule="evenodd">
        <g id="All-Nucleo-Icons" transform="translate(-463.000000, -6166.000000)">
            <g id="Solo/Nucleo/20px/check" transform="translate(461.000000, 6164.000000)">
                <g transform="translate(2.000000, 2.000000)">
                    <mask id="mask-2" fill="white">
                        <use xlink:href="#path-1"></use>
                    </mask>
                    <use id="Mask" fill="#737373" fill-rule="nonzero" xlink:href="#path-1"></use>
                    <g id="colour/neutral/chia" mask="url(#mask-2)" fill="#737373">
                        <g transform="translate(-22.000000, -23.000000)" id="Colour">
                            <rect x="0" y="0" width="64" height="64"></rect>
                        </g>
                    </g>
                </g>
            </g>
        </g>
    </g>
</svg>

<svg width="20" height="20" xmlns="http://www.w3.org/2000/svg" xmlns:xlink="http://www.w3.org/1999/xlink"><defs><path d="M5.684 9.357a.91.91 0 00-1.286 1.286l3.306 3.306a.91.91 0 001.286 0l6.612-6.612a.91.91 0 10-1.286-1.286l-5.969 5.97-2.663-2.664zM10 20c5.523 0 10-4.477 10-10S15.523 0 10 0 0 4.477 0 10s4.477 10 10 10zm0-2a8 8 0 110-16 8 8 0 010 16z" id="check-20px_svg__a"/></defs><use fill="#737373" xlink:href="#check-20px_svg__a" fill-rule="evenodd"/></svg>
